X: 654
T: Honky Tonk Swing
C:Bill Monroe, Arr. Mike Compton
B: jims roots
M:4/4
L:1/8
Q: 1/4=100
K:C
V:1 
x G,G, | "C"CCEG c2c2 ccBc G2GG | cdc(c c)cGF "C7"{_E}=EG_E=E C2C2 |
"F"FGA(c c)cd^d "C"eg{d}e(c c)cAG | (3cccc2 GF2{_E}=E C2[C2E2c2] [C2E2c2]G,G, |
"G"{_B,}=B,G_B,=B, G2cc "(C)"ec2G "G"_B=B_E=E | "C"C2[E2c2] [Ec]G,A,B, C[CEc][CEc][CEc] ||
"C"CCEG c2c2 ccBc G2GG | (3cec (3BcB G2F2 {_E}=EG_E=E C2[C2E2c2] |
"F"FGA(c c)cd_e "C"=ege(c c)cAG | cc2G FG_E=E C2[C2E2c2] [C2E2c2]A,_B, |
"G"{_B,}=B,G_B,=B, G2Gc "(C)"ec2G "G"FG_E=E | "C"C2[C2E2c2][C2E2c2][B,2_E2_c2] [C2=E2=c2][C2E2c2] [C2E2c2]gg ||
"C"!///!c'4- !///!c'4- !///!c'4- !///!c'4 | !///!c'4- !///!g4 !///!e4- !///!c4 | "F"ff2f f2ff "C"gg2g fg_e=e |
c2cG F_E2=E C2[C2E2c2] [C2E2c2]cG | "G"_B=Bgg ag2g ggag _e=e_e=e |
"C"c2cG FF_E=E c2[C2E2c2] [C2E2c2]G,G, || [P:fourth time through]!///!C4- !///!C4- {_E}=E4- E4- | G4- G4 {B}c4- c2C2 |
"F"!///!F4 F2FG F2FG F2_E=E | "C"C2[C2E] !///!{C4E] !///![C4E4c4] !///![C4E4c4] |
"G"{_B,}=B,G_B,=B, G2Gc ec2G FG_E=E | "C"C2[C2E2c2] [CEc]G,A,G, C2[C2E2c2][C2E2c2] z2 |]
% abcbook-tune_id 6298c25df1c2a3aafb6a1e33


% abcbook-boost 0
% abcbook-tablature 
% abcbook-transpose 
% abcbook-lastupdated 1654178398834
% abcbook-soundfonts 
% abcbook-repeats 1


